X:1
T:Title
%%score { ( 1 4 ) | ( 2 3 ) }
L:1/8
Q:1/4=100
M:4/4
K:F
V:1 treble nm="Grand Piano"
V:4 treble 
V:2 bass 
V:3 bass 
V:1
 [CA]3 F B2 A2 | [B,G]3 ^F G2 C2 | [B,G]3 ^F A2 G2 |[M:2/4] [A,F]3 E | F2 C2 | %5
w: W.~Stillman~Martin * * *|||||
[M:4/4] [CA]3 F B2 A2 | [=B,G]3 D A2 G2 | F2 E2 D2 E2 | [A,F]6 z2 | %9
w: ||||
 [E,C]3 [F,CD][K:treble] [G,CE]2 [A,CF]2 | [B,EG]3 [CEA] G2 F2 | A3 A [^Fd]2 [Ac]2 | %12
w: |||
[M:2/4] [GB]3 [^FA] | [Ac]2 [GB]2 |[M:4/4] [GB]3 [EG] [Be]2 [Bd]2 | [FAc]3 [FAd] [_EFc]2 [DFB]2 | %16
w: ||||
 A6 z2 | [A,CF]6 z2 |] %18
w: ||
V:2
 z2 z A, D2 C2 | z2 z A, B,2 B,2 | z2 z A, C2 B,2 |[M:2/4] z2 z G, | A,2 A,2 | %5
[M:4/4] z2 z A, D2 C2 | z2 z =B, B,2 B,2 | B,4 B,4 | F,,6 z2 | C,3 C, C,2 C,2 | %10
 C,3 C, [F,B,C]2 [F,A,C]2 | [F,CF]3 [F,CF] [D,C]2 [D,D]2 |[M:2/4] [D,D]3 [D,D] | [G,D]2 [G,D]2 | %14
[M:4/4] [C,C]3 [C,C] [C,C]2 CE | F,3 F, A,,2 B,,2 | C,2 C,2 C,2 C,2 | F,,6 z2 |] %18
V:3
 F,,8 | B,,8 | C,8 |[M:2/4] F,,4- | F,,4 |[M:4/4] F,,8 | G,,8 | C,8 | x8 | x8 | x8 | x8 | %12
[M:2/4] x4 | x4 |[M:4/4] z4 z2 C,2 | x8 | x8 | x8 |] %18
V:4
 x8 | x8 | x8 |[M:2/4] x4 | x4 |[M:4/4] x8 | x8 | x8 | x8 | x4[K:treble] x4 | x8 | x8 |[M:2/4] x4 | %13
 x4 |[M:4/4] x8 | x8 | [CF]2 [CD]2 [CE]2 [B,CG]2 | x8 |] %18

